!!!COA:	Josquin des Prez
!!!CDT:	~1450-1521/08/27
!!!OPR:	Missa D'ung aultre amer
!!!ONM:	4
!!!OTL:	Sanctus
!!!AGN:	Mass; Sanctus; Missa Brevis
!!!SCT:	NJE 7.3
!!!SCA:	New Josquin Edition 7.3
!!!voices:	4
!!!voices-OPR:	4
**kern	**kern	**kern	**kern
*staff4	*staff3	*staff2	*staff1
*Ivox	*Ivox	*Ivox	*Ivox
*I"Bassus	*I"Tenor	*I"Altus	*I"Superius
*I'B	*I'T	*I'A	*I'S
*clefF4	*clefGv2	*clefGv2	*clefG2
*>[A,B,C]	*>[A,B,C]	*>[A,B,C]	*>[A,B,C]
*>A	*>A	*>A	*>A
*k[b-]	*k[b-]	*k[b-]	*k[b-]
*M2/1	*M2/1	*M2/1	*M2/1
*met(C|)	*met(C|)	*met(C|)	*met(C|)
=1-	=1-	=1-	=1-
!!section: Sanctus
!!!OMD: Sanctus
0r	0G	0r	0g
=2	=2	=2	=2
0r	1F	0r	1a
.	1G	.	1g
=3	=3	=3	=3
0r	0B-	0r	1.dd
.	.	.	4cc\
.	.	.	4b-\
=4	=4	=4	=4
0r	0c	0r	2a/
.	.	.	2.cc\
.	.	.	4b-\
.	.	.	4a/
.	.	.	4g/
=5	=5	=5	=5
[0D	1.d	[0d	0f
.	2c\	.	.
=6	=6	=6	=6
0D]	1B-	0d]	1r
.	1A	.	1f
=7	=7	=7	=7
1GG	1.G	[0d	0g
[1B-	.	.	.
.	4F/	.	.
.	4E/	.	.
=8	=8	=8	=8
2B-\]	0D	0d]	1r
4A\	.	.	.
4G\	.	.	.
1A	.	.	1f
=9	=9	=9	=9
2.G\	1B-	[0d	1g
4F\	.	.	.
1D	1A	.	1f
=10	=10	=10	=10
0GG	1B-	0d]	0g
.	[1G	.	.
=11	=11	=11	=11
0D	1G]	0d	0a
.	1F#i	.	.
=12	=12	=12	=12
0r	1G	1B-	1b-
.	[1C	[1c	2a/
.	.	.	[2g/
=13	=13	=13	=13
0r	1C]	1c]	4g/]
.	.	.	4f/
.	.	.	4e/
.	.	.	4d/
.	1G	[1d	1b-
=14	=14	=14	=14
1r	2F/	2d\]	2a/
.	1G	2d\	1b-
1G	.	1d	.
.	4F/	.	4a/
.	4E/	.	4g/
=15	=15	=15	=15
2A\	2F/	1d	1f
2B-\	2D/	.	.
1c	1C	[1e	1r
=16	=16	=16	=16
1.B-	0G	2e\]	0r
.	.	2d\	.
.	.	[1d	.
4A\	.	.	.
4G\	.	.	.
=17	=17	=17	=17
0F	1D	0d_	0r
.	1F	.	.
=18	=18	=18	=18
0G	0E	1d]	1.g
.	.	1c	.
.	.	.	2a/
=19	=19	=19	=19
[0GG	0D	[0d	2b-\
.	.	.	2cc\
.	.	.	1dd
=20	=20	=20	=20
0GG]	0B-	0d]	1d
.	.	.	[1g
=21	=21	=21	=21
0AA	1c	0r	2g/]
.	.	.	4f#i/
.	.	.	4g/
.	1c	.	2.f#i/
.	.	.	4e/
=22	=22	=22	=22
0GG	0d	0B-	[0g
=23	=23	=23	=23
0C	0e-i	0c	0g]
=24	=24	=24	=24
1.BB-	1d	0d	0r
.	[1f	.	.
2C/	.	.	.
=25	=25	=25	=25
1D	1f]	1d	0r
2GG/	1B-	[1d	.
[2G\	.	.	.
=26	=26	=26	=26
2G\]	0A	1d]	0r
4F#i\	.	.	.
4E\	.	.	.
1F#i	.	1d	.
=27	=27	=27	=27
1.G	0B-	1d	0r
.	.	[1d	.
2F\	.	.	.
=28	=28	=28	=28
1D	1f	2d\]	0r
.	.	4c\	.
.	.	4B-\	.
1A	1e	1c	.
=29	=29	=29	=29
2.D\	1f	0d	1a
4E\	.	.	.
2F\	[1d	.	2a/
[2G\	.	.	[2b-\
=30	=30	=30	=30
4G\]	1d]	0r	4b-\]
4F\	.	.	4a/
4E\	.	.	4g/
4D\	.	.	4f/
1C	1e	.	2.g/
.	.	.	4f/
=31	=31	=31	=31
0BB-	1f	0r	2d/
.	.	.	2B-/
.	1B-	.	[1b-
=32	=32	=32	=32
0F	0c	0r	2b-\]
.	.	.	4a/
.	.	.	4g/
.	.	.	1a
=33	=33	=33	=33
[0BB-	1.B-	[0d	0b-
.	2A/	.	.
=34	=34	=34	=34
0BB-]	1G	1d]	0r
.	1F	1d	.
=35	=35	=35	=35
0GG	0G	[0d	0b-
=36	=36	=36	=36
0BB-	0D	0d]	1b-
.	.	.	1b-
=37	=37	=37	=37
[0AA	0E	[0c	1.cc
.	.	.	2a/
=38	=38	=38	=38
0AA]	0F	0c]	0a
=39	=39	=39	=39
1.GG	0G	0B-	1r
.	.	.	[1dd
[2G\	.	.	.
=40	=40	=40	=40
1G]	1B-	0r	2dd\]
.	.	.	4cc\
.	.	.	4b-\
2F\	1A	.	2dd\
[2A\	.	.	[2cc\
=41	=41	=41	=41
2A\]	0c	0r	2cc\]
4G\	.	.	4b-\
4F\	.	.	4a/
1E	.	.	1g
=42	=42	=42	=42
1D	1d	0r	2r
.	.	.	2f/
2.E-i\	2B-\	.	2.g/
.	2c\	.	.
4D\	.	.	4a/
=43	=43	=43	=43
2BB-/	2.d\	1B-	4b-\
.	.	.	4a/
2D\	.	.	4g/
.	4c\	.	4f/
2.C/	2A/	1c	2.e/
.	[2G/	.	.
4BB-/	.	.	4d/
=44	=44	=44	=44
1GG	2G/]	1d	2g/
.	2B-\	.	1g
1D	1A	1d	.
.	.	.	2f#i/
=45	=45	=45	=45
[0GGl	[0Gl	2d\	[0gl
.	.	2d\	.
.	.	1d	.
=46	=46	=46	=46
0GG]	0G]	0dl	0g]
!!LO:LB:i:g=z
=47||	=47||	=47||	=47||
!!section: Tu solus
!!!OMD: Tu solus
*>B	*>B	*>B	*>B
*k[b-]	*k[b-]	*k[b-]	*k[b-]
*M2/1	*M2/1	*M2/1	*M2/1
*met(C|)	*met(C|)	*met(C|)	*met(C|)
0GG;	0G;	0d;	0b-;
=48	=48	=48	=48
0G;	0B-;	0d;	0b-;
=49	=49	=49	=49
0F;	0c;	0f;	0a;
=50	=50	=50	=50
0C;	0c;	0e;	0g;
=51	=51	=51	=51
1C	1c	1e	1g
1C	1c	1e	1g
=52	=52	=52	=52
1.F	1A	1f	1.a
.	1F	1c	.
2E\	.	.	2g/
=53	=53	=53	=53
1D	1F	2d\	1f
.	.	2B-\	.
1C	2.G/	1c	1e
.	4A/	.	.
=54	=54	=54	=54
0BB-;	0B-;	0F;	0d;
=55	=55	=55	=55
0GG;	0d;	0G;	0b-;
=56	=56	=56	=56
0G;	0B-;	0d;	0b-;
=57	=57	=57	=57
0F;	0c;	0f;	0a;
=58	=58	=58	=58
0C;	0c;	0e-;	0g;
=59	=59	=59	=59
0E-;	0G;	0e-i;	0g;
=60	=60	=60	=60
0BB-;	0B-;	0d;	0f;
=61	=61	=61	=61
0F	0c	0f	0a
=62	=62	=62	=62
1F	1c	1f	1a
[1G	[1B-	[1d	[1b-
=63	=63	=63	=63
1G]	1B-]	1d]	1b-]
1C	1c	1e	1g
=64	=64	=64	=64
0C;	0c;	0e;	0g;
=65	=65	=65	=65
0D	0A	0d	0f
=66	=66	=66	=66
1E-	1G	1B-	1g
1E-i	1G	1B-	1g
=67	=67	=67	=67
0BB-	0d	0B-	0f
=68	=68	=68	=68
0C	0c	0G	0e
=69	=69	=69	=69
0GG;	0B-;	0G;	0d;
=70	=70	=70	=70
0D	0d	0A	0f
=71	=71	=71	=71
1E	1G	1c	1g
1D	1A	1d	1f
=72	=72	=72	=72
[0G	[0B-	1.d	[0g
.	.	2c\	.
=73	=73	=73	=73
1G]	1B-]	1d	1g]
1F	1c	2.f\	1a
.	.	4e\	.
=74	=74	=74	=74
0F;	0c;	0f;	0a;
=75	=75	=75	=75
0BB-	0d	0f	0b-
=76	=76	=76	=76
1F	1c	1f	1a
1G	1B-	1e	1g
=77	=77	=77	=77
0F	0c	0f	1.a
.	.	.	2f/
=78	=78	=78	=78
0BB-;	0B-;	0d;	0f;
=79	=79	=79	=79
0BB-	0d	0f	0b-
=80	=80	=80	=80
1F	1c	1f	1a
1G	1B-	1e	1g
=81	=81	=81	=81
[0D	[0A	[0d	[0f#i
=82	=82	=82	=82
1D]	1A]	1d]	1f#]
1GG	1G	1B-	1g
=83	=83	=83	=83
0GGl	0Gl	0dl	0gl
!!LO:LB:i:g=z
=84||	=84||	=84||	=84||
!!section: Ad te solum
!!!OMD: Ad te solum
*>C	*>C	*>C	*>C
*k[b-]	*k[b-]	*k[b-]	*k[b-]
*M2/1	*M2/1	*M2/1	*M2/1
*met(C|)	*met(C|)	*met(C|)	*met(C|)
1G	1B-	0r	0r
2D\	2B-\	.	.
2E\	2B-\	.	.
=85	=85	=85	=85
2.F\	1.A	0r	0r
4E\	.	.	.
2D\	.	.	.
2C/	2A/	.	.
=86	=86	=86	=86
2.BB-/	2.B-\	0r	0r
4C/	4A/	.	.
2BB-/	2G/	.	.
2AA/	2F#i/	.	.
=87	=87	=87	=87
0GG	0G	0r	0r
=88	=88	=88	=88
0r	0r	1g	1b-
.	.	2d\	2b-\
.	.	2e\	2b-\
=89	=89	=89	=89
0r	0r	2.f\	1.a
.	.	4e\	.
.	.	2d\	.
.	.	2c\	2a/
=90	=90	=90	=90
0r	0r	2.B-\	2.b-\
.	.	4c\	4a/
.	.	2B-\	2g/
.	.	2A/	2f#i/
=91	=91	=91	=91
1r	1r	1G	1g
2r	2r	2r	2r
2G\	2d\	2g\	2b-\
=92	=92	=92	=92
2G\	2d\	2g\	2b-\
2G\	2d\	2g\	2b-\
2G\	2d\	2g\	2b-\
2G\	2d\	2g\	2b-\
=93	=93	=93	=93
1D	1d	4f\	1a
.	.	4e\	.
.	.	4d\	.
.	.	4c\	.
1E	1G	2B-\	1g
.	.	2c\	.
=94	=94	=94	=94
1D	1A	1d	1f
1r	1r	1r	1r
=95	=95	=95	=95
0G;	0G;	0d;	0g;
=96	=96	=96	=96
0G;	0B-;	0g;	0d;
=97	=97	=97	=97
0C;	0c;	0g;	0e;
=98	=98	=98	=98
0D;	0A;	0f;	0d;
=99	=99	=99	=99
*M3/1	*M3/1	*M3/1	*M3/1
*met(3)	*met(3)	*met(3)	*met(3)
1D	1B-	0.r	0.r
1D	1B-	.	.
1D	1B-	.	.
=100	=100	=100	=100
1.E-i	1.c	0.r	0.r
2D\	2B-\	.	.
1C	1A	.	.
=101	=101	=101	=101
1BB-	1G	0.r	0.r
1GG	1G	.	.
1AA	1F#i	.	.
=102	=102	=102	=102
0.GG	0G	0.r	0.r
.	1r	.	.
=103	=103	=103	=103
0.r	1d	1f	1b-
.	1d	1f	1b-
.	1d	1f	1b-
=104	=104	=104	=104
0.r	1.e-i	1.g	1.cc
.	2d\	2f\	2b-\
.	1c	1e	1a
=105	=105	=105	=105
0.r	1B-	1d	1g
.	1G	1d	1g
.	1A	1c	1f#i
=106	=106	=106	=106
1r	0G	0d	0g
1r	.	.	.
1G	1d	1B-	1b-
=107	=107	=107	=107
1F	1d	1f	1a
1G	1B-	1d	1b-
1E	1c	1e	1g
=108	=108	=108	=108
0D	1d	1f	0f
.	1f	1d	.
1C	1e	1e	1g
=109	=109	=109	=109
1F	1d	1f	1a
1G	1B-	1d	1b-
1E	1c	1e	1g
=110	=110	=110	=110
0D;	0d;	0A; 0f;	0a;
1r	1r	1r	1r
=111	=111	=111	=111
0.G;	0.B-;	0.d;	0.g;
=112	=112	=112	=112
0.C;	0.c;	0.e;	0.g;
=113	=113	=113	=113
0.D;	0.A;	0.d;	0.f#i;
=114	=114	=114	=114
0.GGl	0.Gl	0.dl	0.gl
==	==	==	==
*-	*-	*-	*-
!!!RDF**kern: l=long note in original notation
!!!RDF**kern: i=editorial accidental
!!!RDF**kern: V=start of tuplet marker
!!!RDF**kern: Z=end of tuplet marker
!!!ENC:	Jesse Rodin; Victoria Chang 2012/02/24
!!!END:	2012/02/24/
!!!EED:	Jesse Rodin
!!!EEV:	2012/03/22/
!!attribution-level@Jos: 3 (tricky)
!!!ONB:	Translated from MusicXML and edited on 2012/03/22/ by Craig Sapp
!!muse2ps: T^@{OPR}^u^@{ONM}{. }@{OTL}^C^@{COA}?\n@{SCT}^i2I150v90,85,85,150Q16
